!!!COM: Schubert, Franz
!!!CNT: Deutscher
!!!TXO: Deutsch
!!!LYR: Mattha2us von Collin
!!!OTL: "Nacht und Tra2ume"
!!!OPS: Op. 43
!!!ONM: No. 2
!!!ODT: 1825/
!!NB: Vocal melody only encoded.
!!NB: Original key B major
**kern	**silbe
*clefG4	*
*k[f#c#g#]	*
*M4/4	*
*MM[sehr langsam]	*
=5	=5
{2..cc#	{Heil'-
8g#	-ge
=6	=6
[2a	Nacht,
8a]	|
8a	du
8b	sink-
8cc#	-est
=7	=7
2e	nie-
4c#}	-der;}
4r	.
=8	=8
{4.cc#	{nie-
8b	-der
8b	wal-
8a	-len
8g#	auch
8f#	die
=9	=9
2b	Tra2u-
4g#}	-me,}
4r	.
=10	=10
{4.cc#	{wie
8b	dein
8b	Mond-
8a	-licht
8g#	durch
8f#	die
=11	=11
2b	Ra2u-
4g#}	-me,}
4r	.
=12	=12
{8e	{durch
8a	|
8b	der
8cc#	|
4dd	Men-
4cc#	-schen
=13	=13
4cc#	stil-
4b	-le,
4a	stil-
4g#	-le
=14	=14
2a}	Brust.}
2r	.
=15	=15
2r	.
4.r	.
{16.a	{Die
32a	be-
=16	=16
4a	-lau-
4a	-schen
8a	sie
8fn	|
8a	mit
8ccn	|
=17	=17
2.dd}	Lust,}
8r	.
{16.dd	{die
32dd	be-
=18	=18
4dd	-lau-
4dd	-schen
8dd	sie
8b-	|
8fn	mit
8dd	|
=19	=19
2.ccn}	Lust,}
4r	.
=20	=20
{4dd	{ru-
8bn	-fen,
16bn	wenn
16bn	der
8.dd	Tag
16ccn	er-
4bn	-wacht:
=21	=21
4..cc#	Keh-
16b	-re
8b	wie-
8a	-der
8g#	hol-
8f#	-de
=22	=22
2.b}	Nacht!}
8r	.
{8ddn	{Hol-
=23	=23
4..cc#	|
16b	-de
8b	Tra2u-
8a	-me,
8g#	keh-
8f#	-ret
=24	=24
2b	wie-
4g#}	-der,}
4r	.
=25	=25
{8e	{hol-
8a	|
8b	-de
8cc#	|
4dd	Tra2u-
4cc#	-me,
=26	=26
4cc#	keh-
4b	-ret
4a	wie-
4g#	|
=27	=27
2a}	-der!}
2r	.
*-	*-